client/Assets/Features/GamePlay/Options/Levels/Level_8/Level_8.svg

<?xml version="1.0" encoding="UTF-8" standalone="no"?>
<svg
   width="1200"
   height="1201"
   viewBox="0 0 1200 1201"
   fill="none"
   version="1.1"
   id="svg10"
   xmlns="http://www.w3.org/2000/svg"
   xmlns:svg="http://www.w3.org/2000/svg">
  <defs
     id="defs10" />
  <path
     d="m 1067.93,600.5 c 0,61.45 -12.1,122.298 -35.62,179.069 -23.51,56.772 -57.982,108.357 -101.433,151.808 -43.452,43.451 -95.036,77.923 -151.808,101.433 -56.772,23.52 -117.62,35.62 -179.069,35.62 -61.45,0 -122.298,-12.1 -179.069,-35.62 C 364.159,1009.3 312.574,974.828 269.123,931.377 225.672,887.926 191.204,836.341 167.688,779.569 144.173,722.797 132.069,661.949 132.069,600.5 H 600 Z"
     fill="#ffb8d9"
     id="path2" />
  <path
     d="m 1067.93,600.5 c 0,51.208 -10.09,101.914 -29.68,149.224 -19.6,47.31 -48.321,90.297 -84.531,126.506 -36.209,36.21 -79.196,64.932 -126.506,84.529 -47.31,19.596 -98.017,29.682 -149.224,29.682 -51.208,0 -101.915,-10.086 -149.225,-29.682 -47.31,-19.597 -90.296,-48.32 -126.506,-84.529 -36.209,-36.209 -64.932,-79.196 -84.529,-126.506 -19.596,-47.31 -29.682,-98.017 -29.682,-149.225 l 389.942,10e-4 z"
     fill="#f465a7"
     id="path3" />
  <path
     d="m 1067.93,600.5 c 0,40.966 -8.07,81.531 -23.75,119.379 -15.67,37.848 -38.65,72.238 -67.619,101.205 -28.967,28.968 -63.357,51.946 -101.205,67.623 -37.848,15.677 -78.413,23.746 -119.379,23.746 -40.966,0 -81.532,-8.069 -119.38,-23.746 C 598.75,873.03 564.36,850.052 535.392,821.084 506.425,792.116 483.447,757.727 467.769,719.879 452.092,682.031 444.023,641.466 444.023,600.499 l 311.954,10e-4 z"
     fill="#bb2269"
     id="path4" />
  <path
     d="m 1067.93,600.5 c 0,28.356 -6.05,56.434 -17.81,82.632 -11.76,26.197 -28.99,50.001 -50.716,70.052 -21.726,20.05 -47.518,35.955 -75.904,46.807 -28.386,10.851 -58.81,16.436 -89.535,16.436 -30.725,0 -61.148,-5.585 -89.534,-16.436 -28.386,-10.852 -54.179,-26.757 -75.904,-46.807 -21.726,-20.051 -38.96,-43.855 -50.718,-70.052 C 606.052,656.934 600,628.856 600,600.5 h 233.965 z"
     fill="#840a43"
     id="path5" />
  <path
     d="m 132.069,600.5 c 0,-61.45 12.104,-122.298 35.62,-179.07 23.515,-56.772 57.983,-108.356 101.434,-151.807 43.452,-43.452 95.036,-77.919 151.808,-101.435 56.772,-23.515 117.62,-35.619 179.069,-35.619 61.45,0 122.298,12.104 179.07,35.619 56.772,23.516 108.356,57.984 151.807,101.435 43.452,43.451 77.923,95.036 101.433,151.808 23.52,56.772 35.62,117.62 35.62,179.069 H 600 Z"
     fill="#fee002"
     id="path7" />
  <path
     d="m 132.069,600.5 c 0.001,-51.208 10.087,-101.914 29.683,-149.224 19.597,-47.31 48.319,-90.297 84.529,-126.506 36.209,-36.21 79.196,-64.933 126.506,-84.529 47.31,-19.596 98.017,-29.682 149.224,-29.682 51.208,0 101.915,10.086 149.225,29.682 47.31,19.597 90.297,48.32 126.506,84.529 36.209,36.209 64.932,79.196 84.529,126.506 19.596,47.31 29.682,98.017 29.682,149.225 L 522.011,600.5 Z"
     fill="#c5d332"
     id="path8" />
  <path
     d="m 132.069,600.5 c 0,-40.966 8.069,-81.531 23.746,-119.379 15.678,-37.848 38.656,-72.238 67.624,-101.205 28.967,-28.968 63.357,-51.946 101.205,-67.623 37.848,-15.677 78.413,-23.746 119.379,-23.746 40.966,0 81.532,8.069 119.38,23.746 37.848,15.677 72.237,38.655 101.205,67.623 28.967,28.968 51.946,63.357 67.623,101.205 15.677,37.848 23.746,78.413 23.746,119.38 L 444.023,600.5 Z"
     fill="#90b950"
     id="path9" />
  <path
     d="m 132.069,600.5 c 0,-28.356 6.052,-56.434 17.81,-82.632 11.758,-26.197 28.992,-50.001 50.717,-70.052 21.726,-20.05 47.518,-35.955 75.904,-46.807 28.386,-10.851 58.81,-16.436 89.535,-16.436 30.725,0 61.148,5.585 89.534,16.436 28.386,10.852 54.179,26.757 75.904,46.807 21.726,20.051 38.96,43.855 50.718,70.052 C 593.948,544.066 600,572.144 600,600.5 H 366.035 Z"
     fill="#67a24f"
     id="path10" />
</svg>

<svg width="1200" height="1201" viewBox="0 0 1200 1201" fill="none" xmlns="http://www.w3.org/2000/svg">
<path d="M132.069 600.5C132.069 539.05 144.173 478.203 167.688 421.431C191.204 364.659 225.672 313.074 269.123 269.623C312.575 226.172 364.159 191.704 420.931 168.188C477.703 144.673 538.551 132.569 600 132.569C661.45 132.569 722.297 144.673 779.069 168.188C835.841 191.704 887.426 226.172 930.877 269.623C974.328 313.074 1008.8 364.659 1032.31 421.431C1055.83 478.203 1067.93 539.051 1067.93 600.5L600 600.5L132.069 600.5Z" fill="#D9D9D9"/>
<path d="M132.069 600.5C132.069 539.05 144.173 478.203 167.688 421.431C191.204 364.659 225.672 313.074 269.123 269.623C312.575 226.172 364.159 191.704 420.931 168.188C477.703 144.673 538.551 132.569 600 132.569C661.45 132.569 722.297 144.673 779.069 168.188C835.841 191.704 887.426 226.172 930.877 269.623C974.328 313.074 1008.8 364.659 1032.31 421.431C1055.83 478.203 1067.93 539.051 1067.93 600.5L600 600.5L132.069 600.5Z" fill="#FEE002"/>
<path d="M132.069 600.5C132.069 549.293 142.156 498.586 161.752 451.276C181.348 403.966 210.071 360.979 246.281 324.77C282.49 288.56 325.477 259.838 372.787 240.241C420.097 220.645 470.803 210.559 522.011 210.559C573.219 210.559 623.926 220.645 671.236 240.241C718.546 259.838 761.532 288.561 797.742 324.77C833.951 360.979 862.674 403.966 882.271 451.276C901.867 498.586 911.953 549.293 911.953 600.501L522.011 600.5L132.069 600.5Z" fill="#C5D332"/>
<path d="M132.069 600.5C132.069 559.534 140.138 518.969 155.815 481.121C171.493 443.273 194.471 408.883 223.438 379.916C252.406 350.948 286.796 327.97 324.644 312.293C362.491 296.616 403.057 288.547 444.023 288.547C484.989 288.547 525.555 296.616 563.403 312.293C601.25 327.97 635.64 350.948 664.608 379.916C693.575 408.884 716.553 443.273 732.231 481.121C747.908 518.969 755.977 559.534 755.977 600.501L444.023 600.5L132.069 600.5Z" fill="#90B950"/>
<path d="M132.069 600.5C132.069 572.144 138.121 544.066 149.879 517.868C161.637 491.671 178.871 467.867 200.596 447.816C222.322 427.766 248.114 411.861 276.5 401.009C304.886 390.158 335.31 384.573 366.035 384.573C396.759 384.573 427.183 390.158 455.569 401.009C483.955 411.861 509.748 427.766 531.473 447.816C553.199 467.867 570.433 491.671 582.19 517.868C593.948 544.066 600 572.144 600 600.5L366.035 600.5L132.069 600.5Z" fill="#67A24F"/>
<path d="M1067.93 600.5C1067.93 661.95 1055.83 722.798 1032.31 779.569C1008.8 836.341 974.328 887.926 930.877 931.377C887.425 974.828 835.841 1009.3 779.069 1032.81C722.297 1056.33 661.449 1068.43 600 1068.43C538.55 1068.43 477.702 1056.33 420.931 1032.81C364.159 1009.3 312.574 974.828 269.123 931.377C225.672 887.926 191.204 836.341 167.688 779.569C144.173 722.797 132.069 661.949 132.069 600.5L600 600.5L1067.93 600.5Z" fill="#D9D9D9"/>
<path d="M1067.93 600.5C1067.93 661.95 1055.83 722.798 1032.31 779.569C1008.8 836.341 974.328 887.926 930.877 931.377C887.425 974.828 835.841 1009.3 779.069 1032.81C722.297 1056.33 661.449 1068.43 600 1068.43C538.55 1068.43 477.702 1056.33 420.931 1032.81C364.159 1009.3 312.574 974.828 269.123 931.377C225.672 887.926 191.204 836.341 167.688 779.569C144.173 722.797 132.069 661.949 132.069 600.5L600 600.5L1067.93 600.5Z" fill="#FEE002"/>
<path d="M1067.93 600.5C1067.93 651.708 1057.84 702.414 1038.25 749.724C1018.65 797.034 989.929 840.021 953.719 876.23C917.51 912.44 874.523 941.162 827.213 960.759C779.903 980.355 729.196 990.441 677.989 990.441C626.781 990.441 576.074 980.355 528.764 960.759C481.454 941.162 438.468 912.439 402.258 876.23C366.049 840.021 337.326 797.034 317.729 749.724C298.133 702.414 288.047 651.707 288.047 600.499L677.989 600.5L1067.93 600.5Z" fill="#C5D332"/>
<path d="M1067.93 600.5C1067.93 641.466 1059.86 682.031 1044.18 719.879C1028.51 757.727 1005.53 792.117 976.561 821.084C947.594 850.052 913.204 873.03 875.356 888.707C837.508 904.384 796.943 912.453 755.977 912.453C715.011 912.453 674.445 904.384 636.597 888.707C598.75 873.03 564.36 850.052 535.392 821.084C506.425 792.116 483.447 757.727 467.769 719.879C452.092 682.031 444.023 641.466 444.023 600.499L755.977 600.5L1067.93 600.5Z" fill="#90B950"/>
<path d="M1067.93 600.5C1067.93 628.856 1061.88 656.934 1050.12 683.132C1038.36 709.329 1021.13 733.133 999.404 753.184C977.678 773.234 951.886 789.139 923.5 799.991C895.114 810.842 864.69 816.427 833.965 816.427C803.24 816.427 772.817 810.842 744.431 799.991C716.045 789.139 690.252 773.234 668.527 753.184C646.801 733.133 629.567 709.329 617.809 683.132C606.052 656.934 600 628.856 600 600.5L833.965 600.5L1067.93 600.5Z" fill="#67A24F"/>
</svg>
